X:1
T:Haselbury Girl
M:6/8
L:1/8
K:G
 D| G2 G G2 G| G2 G G2 A| B2 B c2 A| G3- G2 A| B2 B B2 B| ddd d2 d|\
 GGG F2 G| A3- A2 d| ddB G2 F| E c2- c2 c| B2 GA-G E| D3- DD D| G2 G G2 E|\
 DDD D2 D| GGG AGG| G3- G2||
